build/assets/img/about_decor1.svg

<svg width="578" height="544" viewBox="0 0 578 544" fill="none" xmlns="http://www.w3.org/2000/svg">
<path d="M508.839 415.951C502.336 406.583 489.838 404.837 480.916 412.005C465.949 424.1 448.11 433.85 428.54 441.531L412.412 320.173C467.445 370.416 505.36 312.756 505.36 312.756C461.872 302.5 469.27 256.725 473.003 237.423C476.736 218.122 470.572 177.442 430.251 180.103C397.769 182.267 375.317 230.108 372.343 245.753L258.982 223.829C256.467 222.056 249.063 200.153 246.348 191.351L194.01 20.7617C194.01 20.7617 153.734 18.6213 157.918 76.2566C154.128 77.3133 150.405 78.8305 146.748 80.8081L85.8547 114.335C59.0496 129.063 47.8264 164.254 60.8526 192.558C73.8789 220.862 106.455 231.916 133.26 217.189L153.57 205.68L169.034 257.386C171.621 265.773 170.178 275.114 165.139 282.361L105.889 386.121C90.1264 372.501 76.3906 357.54 65.7143 341.269C59.443 331.778 47.0179 329.654 37.8668 336.666C28.7659 343.687 26.4805 357.116 32.781 366.724C74.8306 430.9 153.286 477.73 244.555 495.382C343.289 514.477 441.084 497.315 504.344 446.179C513.296 438.85 515.331 425.373 508.839 415.951ZM251.11 264.535L345.586 282.807L341.655 303.132L247.179 284.861L251.11 264.535ZM177.126 430.772C193.028 388.32 234.998 361.815 277.928 370.118C319.605 378.178 348.241 416.325 348.884 460.019C317.863 462.689 285.189 461.012 252.678 454.725C225.829 449.532 200.516 441.225 177.126 430.772Z" fill="#A58E18" fill-opacity="0.2"/>
</svg>

<svg width="578" height="544" fill="none" xmlns="http://www.w3.org/2000/svg"><path d="M508.839 415.951c-6.503-9.368-19.001-11.114-27.923-3.946-14.967 12.095-32.806 21.845-52.376 29.526l-16.128-121.358c55.033 50.243 92.948-7.417 92.948-7.417-43.488-10.256-36.09-56.031-32.357-75.333 3.733-19.301-2.431-59.981-42.752-57.32-32.482 2.164-54.934 50.005-57.908 65.65l-113.361-21.924c-2.515-1.773-9.919-23.676-12.634-32.478L194.01 20.761s-40.276-2.14-36.092 55.496c-3.79 1.056-7.513 2.573-11.17 4.551l-60.893 33.527c-26.805 14.728-38.029 49.919-25.002 78.223 13.026 28.304 45.602 39.358 72.407 24.631l20.31-11.509 15.464 51.706c2.587 8.387 1.144 17.728-3.895 24.975l-59.25 103.76c-15.763-13.62-29.498-28.581-40.175-44.852-6.271-9.491-18.696-11.615-27.847-4.603-9.101 7.021-11.386 20.45-5.086 30.058C74.831 430.9 153.286 477.73 244.555 495.382c98.734 19.095 196.529 1.933 259.789-49.203 8.952-7.329 10.987-20.806 4.495-30.228zM251.11 264.535l94.476 18.272-3.931 20.325-94.476-18.271 3.931-20.326zm-73.984 166.237c15.902-42.452 57.872-68.957 100.802-60.654 41.677 8.06 70.313 46.207 70.956 89.901-31.021 2.67-63.695.993-96.206-5.294-26.849-5.193-52.162-13.5-75.552-23.953z" fill="#A58E18" fill-opacity=".2"/></svg>
